src/components/Icon/assets/channel-left.svg

<svg width="24" height="24" viewBox="0 0 24 24" fill="none" xmlns="http://www.w3.org/2000/svg">
<path fill-rule="evenodd" clip-rule="evenodd" d="M11.9977 4.00009C9.8767 4.00009 7.8717 4.81809 6.3487 6.33709C4.5077 8.17509 3.6897 10.7231 4.1057 13.3271C4.6477 16.7131 7.4087 19.4221 10.8217 19.9151C12.5327 20.1621 14.2377 19.8671 15.7477 19.0601C16.3897 18.7181 17.1057 18.6481 17.7627 18.8671L19.4187 19.4181L18.8667 17.7631C18.6487 17.1071 18.7167 16.3921 19.0597 15.7481C19.9437 14.0931 20.2107 12.2281 19.8337 10.3541C19.1867 7.14209 16.5797 4.63209 13.3447 4.10909C12.8927 4.03609 12.4427 4.00009 11.9977 4.00009ZM11.9997 22.0001C11.5137 22.0001 11.0247 21.9651 10.5357 21.8941C6.2657 21.2771 2.8097 17.8841 2.1317 13.6431C1.6127 10.3971 2.6347 7.2181 4.9357 4.9221C7.2377 2.6251 10.4197 1.6101 13.6637 2.1351C17.7167 2.7911 20.9847 5.9351 21.7947 9.9591C22.2647 12.2941 21.9287 14.6211 20.8247 16.6891C20.7767 16.7781 20.7057 16.9551 20.7647 17.1311L21.6327 19.7351C21.8127 20.2771 21.6747 20.8651 21.2697 21.2701C20.8657 21.6741 20.2747 21.8121 19.7347 21.6321L17.1297 20.7641C16.9547 20.7061 16.7797 20.7771 16.6907 20.8241C15.2337 21.6021 13.6347 22.0001 11.9997 22.0001ZM6.7712 14.065C5.9262 14.065 5.5732 13.455 5.5732 11.96C5.5732 10.465 5.9262 9.855 6.7712 9.855C7.6162 9.855 7.9702 10.465 7.9702 11.96C7.9702 13.455 7.6162 14.065 6.7712 14.065ZM11.9994 11.96C11.9994 13.455 12.3534 14.065 13.1984 14.065C14.0434 14.065 14.3964 13.455 14.3964 11.96C14.3964 10.465 14.0434 9.855 13.1984 9.855C12.3534 9.855 11.9994 10.465 11.9994 11.96Z" fill="#65676A"/>
</svg>

<svg xmlns="http://www.w3.org/2000/svg" width="24" height="24" viewBox="0 0 24 24">
    <path fill="#65676A" fill-rule="evenodd" d="M13.664 2.135c4.053.656 7.32 3.8 8.13 7.824.47 2.335.135 4.662-.97 6.73-.047.09-.118.266-.06.442l.869 2.604c.18.542.042 1.13-.363 1.535-.404.404-.995.542-1.535.362l-2.605-.868c-.175-.058-.35.013-.44.06C15.235 21.602 13.636 22 12 22c-.486 0-.975-.035-1.464-.106-4.27-.617-7.726-4.01-8.404-8.25-.52-3.247.503-6.426 2.804-8.722 2.302-2.297 5.484-3.312 8.728-2.787zM11.998 4c-2.121 0-4.126.818-5.65 2.337-1.84 1.838-2.658 4.386-2.242 6.99.542 3.386 3.303 6.095 6.716 6.588 1.71.247 3.416-.048 4.926-.855.642-.342 1.358-.412 2.015-.193l1.656.551-.552-1.655c-.218-.656-.15-1.37.193-2.015.884-1.655 1.15-3.52.774-5.394-.647-3.212-3.254-5.722-6.49-6.245-.451-.073-.901-.109-1.346-.109zM6.77 9.855c.845 0 1.2.61 1.2 2.105s-.355 2.105-1.2 2.105-1.198-.61-1.198-2.105.353-2.105 1.198-2.105zm6.427 0c.845 0 1.198.61 1.198 2.105s-.353 2.105-1.198 2.105S12 13.455 12 11.96s.354-2.105 1.2-2.105z"/>
</svg>
